images/control/log-in.svg

<svg width="16" height="17" viewBox="0 0 16 17" fill="none" xmlns="http://www.w3.org/2000/svg">
<g id="Log-in">
<path id="Union" fill-rule="evenodd" clip-rule="evenodd" d="M9 2.52461C9 2.15642 9.29848 1.85794 9.66667 1.85794H12.3333C12.8638 1.85794 13.3725 2.06865 13.7475 2.44373C14.1226 2.8188 14.3333 3.32751 14.3333 3.85794V13.1913C14.3333 13.7217 14.1226 14.2304 13.7475 14.6055C13.3725 14.9806 12.8638 15.1913 12.3333 15.1913H9.66667C9.29848 15.1913 9 14.8928 9 14.5246C9 14.1564 9.29848 13.8579 9.66667 13.8579H12.3333C12.5101 13.8579 12.6797 13.7877 12.8047 13.6627C12.9298 13.5377 13 13.3681 13 13.1913V3.85794C13 3.68113 12.9298 3.51156 12.8047 3.38654C12.6797 3.26151 12.5101 3.19127 12.3333 3.19127H9.66667C9.29848 3.19127 9 2.8928 9 2.52461ZM5.86189 4.71987C6.12224 4.45952 6.54435 4.45952 6.8047 4.71987L10.1338 8.04897C10.1509 8.06579 10.1671 8.08353 10.1824 8.1021C10.2142 8.1409 10.2411 8.18246 10.2628 8.22589C10.3079 8.31575 10.3333 8.41721 10.3333 8.52461C10.3333 8.63323 10.3074 8.73579 10.2613 8.8264C10.241 8.86635 10.2164 8.90469 10.1876 8.94072C10.1708 8.96172 10.1527 8.98169 10.1335 9.0005L6.8047 12.3293C6.54435 12.5897 6.12224 12.5897 5.86189 12.3293C5.60154 12.069 5.60154 11.6469 5.86189 11.3865L8.05715 9.19127H1.66667C1.29848 9.19127 1 8.8928 1 8.52461C1 8.15642 1.29848 7.85794 1.66667 7.85794H8.05715L5.86189 5.66268C5.60154 5.40233 5.60154 4.98022 5.86189 4.71987Z" fill="#2D3440"/>
</g>
</svg>

<svg width="16" height="17" viewBox="0 0 16 17" fill="none" xmlns="http://www.w3.org/2000/svg"><path fill-rule="evenodd" clip-rule="evenodd" d="M9 2.5246a.6667.6667 0 0 1 .6667-.6667h2.6666a1.9997 1.9997 0 0 1 2 2v9.3334a2 2 0 0 1-2 2H9.6667a.6667.6667 0 0 1 0-1.3334h2.6666A.6667.6667 0 0 0 13 13.1913V3.8579a.6664.6664 0 0 0-.6667-.6666H9.6667A.6667.6667 0 0 1 9 2.5246ZM5.8619 4.72a.6667.6667 0 0 1 .9428 0l3.3291 3.329a.6627.6627 0 0 1 .129.177.664.664 0 0 1 .0705.2987.6636.6636 0 0 1-.1998.4759l-3.3288 3.3288a.6667.6667 0 1 1-.9428-.9428L8.057 9.1913H1.6668a.6667.6667 0 1 1 0-1.3334h6.3905L5.8619 5.6627a.6667.6667 0 0 1 0-.9428Z" fill="#2D3440"/></svg>
